X:1
T:Title
%%score { ( 1 3 ) | ( 2 4 ) }
L:1/8
M:4/4
K:Db
V:1 treble nm="Grand Piano"
V:3 treble 
V:2 bass 
V:4 bass 
V:1
 z4 z2[Q:1/4=70] AA | d2 d>d dcBA |[M:3/4] d6 |[M:1/4] de |[M:4/4] f2 f>f ffed | %5
[M:3/4] f->[df-] [df-][df-] [df]2 |[M:1/4] [df]2 |[M:4/4] [dg] [df]2 [de] [Ad][Ad][Ad][Ad] | %8
 [Be][Bd][Bd][Bd] [Ad][Ad][Ad][Ae] | [df]2 [df][df] [df]>[Ad] [Ae]>[Ae] |[M:3/4] [Ad]6 |] %11
V:2
 z8 | z8 |[M:3/4] [D,F,]>[D,F,] [D,F,][D,F,] [D,F,]2 |[M:1/4] F,G, |[M:4/4] A,2 A,>A, A,A,G,F, | %5
[M:3/4] A,6 |[M:1/4] [D,A,]2 |[M:4/4] [D,B,] [D,A,]2 [D,G,] [D,F,][D,F,][D,F,][D,F,] | %8
 [G,,G,][G,,G,][G,,G,][G,,G,] [D,F,][D,F,][D,F,][D,G,] | %9
 [A,,A,]2 [A,,A,][A,,A,] [A,,A,]>[A,,F,] [A,,G,]>[A,,G,] |[M:3/4] [D,F,]6 |] %11
V:3
 x8 | x8 |[M:3/4] A>A AA A2 |[M:1/4] x2 |[M:4/4] x8 |[M:3/4] d2 z2 z2 |[M:1/4] x2 |[M:4/4] x8 | %8
 x8 | x8 |[M:3/4] x6 |] %11
V:4
 x8 | x8 |[M:3/4] x6 |[M:1/4] x2 |[M:4/4] x8 |[M:3/4] D,>D, D,D, D,2 |[M:1/4] x2 |[M:4/4] x8 | x8 | %9
 x8 |[M:3/4] x6 |] %11

